packages/components/bolt-icons/src/svgs/product/services/knowledgebase.svg

<?xml version="1.0" encoding="UTF-8"?>
<svg width="32px" height="32px" viewBox="0 0 32 32" version="1.1" xmlns="http://www.w3.org/2000/svg" xmlns:xlink="http://www.w3.org/1999/xlink">
    <!-- Generator: Sketch 49.3 (51167) - http://www.bohemiancoding.com/sketch -->
    <title>brand icons/community/brand-knowledgebase</title>
    <desc>Created with Sketch.</desc>
    <defs>
        <path d="M0.942951438,2 L8.05704856,2 C8.57755776,2 9,2.44199077 9,2.98879367 L9,29.0112063 C9,29.5580092 8.57755776,30 8.05704856,30 L0.942951438,30 C0.422442244,30 0,29.5580092 0,29.0112063 L0,2.98879367 C0,2.44199077 0.422442244,2 0.942951438,2 Z M2,28.059 L7,28.059 L7,26.059 L2,26.059 L2,28.059 Z M2,5.999 L7,5.999 L7,3.999 L2,3.999 L2,5.999 Z M2,24 L7,24 L7,8 L2,8 L2,24 Z M10.9429514,2 L18.0570486,2 C18.5775578,2 19,2.44199077 19,2.98879367 L19,29.0112063 C19,29.5580092 18.5775578,30 18.0570486,30 L10.9429514,30 C10.4224422,30 10,29.5580092 10,29.0112063 L10,2.98879367 C10,2.44199077 10.4224422,2 10.9429514,2 Z M12,28.059 L17,28.059 L17,26.059 L12,26.059 L12,28.059 Z M12,5.999 L17,5.999 L17,3.999 L12,3.999 L12,5.999 Z M12,24 L17,24 L17,8 L12,8 L12,24 Z M19.7966621,2.72880822 L26.8231729,1.61591824 C27.3372737,1.53449267 27.8236576,1.90495727 27.9091964,2.44502812 L31.9799986,28.1470617 C32.0655375,28.6871325 31.7174388,29.1897662 31.2033379,29.2711918 L24.1768271,30.3840818 C23.6627263,30.4655073 23.1763424,30.0950427 23.0908036,29.5549719 L19.0200014,3.85293831 C18.9344625,3.31286746 19.2825612,2.8102338 19.7966621,2.72880822 Z M24.9172224,28.3016199 L29.8556641,27.5194475 L29.5427951,25.5440709 L24.6043534,26.3262432 L24.9172224,28.3016199 Z M21.4662781,6.51321507 L26.4047198,5.73104274 L26.0918508,3.75566606 L21.1534091,4.53783839 L21.4662781,6.51321507 Z M24.2822549,24.2925929 L29.2206966,23.5104206 L26.7177451,7.70740711 L21.7793034,8.48957944 L24.2822549,24.2925929 Z" id="path-1"></path>
    </defs>
    <g id="brand-icons/community/brand-knowledgebase" stroke="none" stroke-width="1" fill="none" fill-rule="evenodd">
        <mask id="mask-2" fill="white">
            <use xlink:href="#path-1"></use>
        </mask>
        <g id="Mask"></g>
        <g id="z_atom/Icon-color/brand-black" mask="url(#mask-2)" fill="#2D2E33">
            <rect id="Rectangle-15" x="0" y="0" width="32" height="32"></rect>
        </g>
    </g>
</svg>

<svg id="a7eb3569-5661-4071-af89-bb50f89e5bb3" data-name="Layer 1" xmlns="http://www.w3.org/2000/svg" viewBox="0 0 32.02 28.73"><title>knowledgebase</title><path id="f7357d4c-7468-4355-a9ac-f4c54b41895f" data-name="path-1" d="M.9,2H8A.94.94,0,0,1,9,3V29a1,1,0,0,1-.9,1H.9A.92.92,0,0,1,0,29V3A.92.92,0,0,1,.9,2ZM2,28.1H7v-2H2ZM2,6H7V4H2ZM2,24H7V8H2ZM10.9,2H18a.94.94,0,0,1,1,1V29a1,1,0,0,1-.9,1H11a.92.92,0,0,1-.9-1V3A.81.81,0,0,1,10.9,2ZM12,28.1h5v-2H12ZM12,6h5V4H12Zm0,18h5V8H12ZM19.8,2.7l7-1.1a1,1,0,0,1,1.1.8L32,28.1a1,1,0,0,1-.8,1.1l-7,1.1a1,1,0,0,1-1.1-.8L19,3.9A1,1,0,0,1,19.8,2.7Zm5.1,25.6,4.9-.8-.3-2-4.9.8ZM21.5,6.5l4.9-.8-.3-2-4.9.8Zm2.8,17.8,4.9-.8L26.7,7.7l-4.9.8Z" transform="translate(0 -1.58)" fill="#1f2555" fill-rule="evenodd"/></svg>
